X:1
T:Pipe Major Davie Hendrie
C:William Livingstone Sr
B:William Livingstone Volume 1
H:
O:Kevin Fraser
Z:Kevin Fraser
Q:1/4=90
K:HP
M:2/4
L:1/16
R:March
U: R = ///
U: r = //
U: V = !accent!
V:M gstem=up stem=down name="Melody" sname="Melody" 
V:H gstem=up stem=down name="Harmony" sname="Harmony"
V:C gstem=up stem=down name="C-Harmony" sname="C-Harmony"
V:S gstem=up stem=down clef=none dyn=up name="Snare" sname="Snare"
V:B gstem=up stem=down clef=none dyn=up name="Bass" sname="Bass"
V:T gstem=up stem=down clef=none dyn=up name="Tenor" sname="Tenor"
V:BB gstem=up stem=down name="Brass Bass" sname="Bass" transpose=-1  octave=-2 clef=bass
V:BC gstem=up stem=down name="Brass Chord" sname="ABCD-D" transpose=-1
V:BD gstem=up stem=down name="Brass Chord 2" sname="ABCD-B" transpose=-1
V:P gstem=up stem=down name="Piano" sname="Piano" transpose=0 octave=-1
I:MIDI=program 110
%%MIDI gracedivider 4
% %score {M BC BD BB}
% %MIDI program 109 #bagpipes
%%MIDI vol 100
[V:M] [|:e| {g}A2{GdGe}A>B {gBd}B>A{g}B<{d}G | {g}A>{d}B{g}B<d} {gef}e3f | {a}g>f{gef}e>d {G}B<d{gde}d>G | {g}B<e{gde}d>B {gGd}G2e2
w:
[V:M] x |{g}A2{GdGe}A>B {gBd}B>A{g}B<{d}G | {g}A>{d}B{g}B<d} {gef}e2a>f | {a}g>f{gef}e>d {G}B<d{g}G>A | {gBd}B3{e}A {GAG}A2 :|]
w:
[V:M] [|:g>f| {gef}e3a {g}a2e>f | {a}g>e{g}f>d} {gef}e2a>f | {a}g>f{gef}e>d {G}B<d{gde}d>G | {g}B<e{gde}d>B {gGd}G2g>f | 
w:
[V:M]      x2|   {gef}e3a {g}a2e>f | {a}g>e{g}f>d} {gef}e2a>f | {a}g>f{gef}e>d {G}B<d{g}G>A | {gBd}B3{e}A {GAG}A2 :|]
w:
[V:M] [|:g>f| {gef}e>A{gAGAG}A2 {G}G>{d}A{e}A>B | {GdG}e2{gef}e>d } {gef}e2a>f | {a}g>f{gef}e>d {G}B<d{gde}d>G | {g}B<e{gde}d>B {gGd}G2g>f | 
w:
[V:M]         {gef}e>A{gAGAG}A2 {G}G>{d}A{e}A>B | {GdG}e2{gef}e>d | {a}g>f{gef}e>d {G}B<d{g}G>A | {gBd}B3{e}A {GAG}A2 :|]
w:
[V:M] [|:{g}e>f| {a}g2{GdGe}A>f a2{GdG}a>f | {a}g>e{g}f>d {gef}e2}a>f |  {a}g>f{gef}e>d {G}B<d{gde}d>G | {g}B<e{gde}d>B {gGd}G2 [1{g}e>f | 
w:
[V:M]             {a}g2{GdGe}A>f a2{GdG}a>f | {a}g>e{g}f>d {gef}e2}a>f| {a}g>f{gef}e>d {G}B<d{g}G>A | {gBd}B3{e}A {GAG}A2 :|
w:
[V:M]  [2 {fg}e2| {g}A2{GdGe}a>B {gAGAG}A2{g}B<{d}A | {GdG}e2{gef}e>d {gef}e2a>f| {a}g>f{gef}e>d {G}B<d{g}G>A | {gBd}B3{e}A {GAG}A2 |]
w:

